X:1
T:Title
%%score { 1 | 2 }
L:1/8
M:4/4
K:A
V:1 treble nm="Grand Piano"
V:2 bass 
V:1
 z4 z2[Q:1/4=104] A>B | c2 c2 c2 B>A | [GB]2 [Ge]2 [Ge]2 c>d | e2 [EA]>[FB] [Ec]2 [DB]2 | %4
[M:3/4] [CA]6 |[M:1/4] A>B |[M:4/4] c2 c2 c2 B>A | [GB]2 [Ge]2 [Ge]2 c>d | %8
 e2 [EA]>[FB] [Ec]2 [DB]2 |[M:3/4] [A,CA]6 |[M:1/4] [Ac]>[Bd] | %11
[M:4/4] [ce]>[ce] [ce]>[ce] [ce][ce][df][ce] | [Bd]>[Bd] [Bd][Bd] [Bd]2 [ce]>[Bd] | %13
 c>c c>c c[ce][Bd][Ac] |[M:3/4] [GB][FA] [EG][FA] [GB]2 |[M:1/4] A>B |[M:4/4] c2 c2 c2 B>A | %17
[M:9/8] [GB]2 [Ge]- [Ge] [Ge]2- [Ge]c>d |[M:4/4] e2 [EA]>[FB] [Ec]2 [DB]2 |[M:3/4] [CA]6 |] %20
V:2
 z4 z2 [A,C]>[A,D] | [A,E]2 [A,E]2 [A,E]2 [G,B,E]>[F,CF] | %2
 [E,E]2 [E,B,]2 [E,B,]2[K:treble] [A,A]>[A,B,A] | [A,CA]2[K:bass] [C,A,]>[D,A,] [E,A,]2 [E,G,]2 | %4
[M:3/4] [A,,A,]6 |[M:1/4] [A,C]>[A,D] |[M:4/4] [A,E]2 [A,E]2 [A,E]2 [G,B,E]>[F,CF] | %7
 [E,E]2 [E,B,]2 [E,B,]2[K:treble] [A,A]>[A,B,A] | [A,CA]2[K:bass] [C,A,]>[D,A,] [E,A,]2 [E,G,]2 | %9
[M:3/4] A,,6 |[M:1/4] A,>A, |[M:4/4] A,>A, A,>A, A,A,A,A, | E,>E, E,E, E,2 E,>E, | %13
 [A,A]>[A,A] [A,A]>[A,A] [A,A][K:bass]A,A,A, |[M:3/4] E,E, E,E, E,2 |[M:1/4] [A,C]>[A,D] | %16
[M:4/4] [A,E]2 [A,E]2 [A,E]2 [G,B,E]>[F,CF] | %17
[M:9/8] [E,E]2 [E,B,]- [E,B,] [E,B,]2- [E,B,][K:treble][A,A]>[A,B,A] | %18
[M:4/4] [A,CA]2[K:bass] [C,A,]>[D,A,] [E,A,]2 [E,G,]2 |[M:3/4] [A,,A,]6 |] %20

